X:16
T:L'meraude
C:Stphane Durand
D:"Tapage"
N:originally in D minor
M:2/4
L:1/8
Q:C2=175
K:Gm
BA Gd|e2d2|BA Gd|e2d2|BA Bd|g2d2|dg fe|d4|ef ed|
e2c2|ef ed|A4|ef ed|1c2 =Bc-|c=B c^c|dB AG:|2c2 ^cd-|dB A2|G4||
gb af|g2d2|cf =ec|d4|ed cf|ec ce|dc de|d4|
gb af|g2d2|cf =ec|d4|ed cf|ec ce|fe f^f|g4:|
